; generated by PrusaSlicer 2.5.0+MacOS-x64 on 2022-09-23 at 17:44:26 UTC


;
;
; 

; external perimeters extrusion width = 0.60mm
; perimeters extrusion width = 0.50mm
; infill extrusion width = 0.50mm
; solid infill extrusion width = 0.50mm
; top infill extrusion width = 0.45mm
; support material extrusion width = 0.38mm
; first layer extrusion width = 0.42mm

M73 P0 R33
M73 Q0 S33
M201 X1000 Y1000 Z200 E5000 ; sets maximum accelerations, mm/sec^2
M203 X200 Y200 Z12 E120 ; sets maximum feedrates, mm / sec
M204 P1250 R1250 T1250 ; sets acceleration (P, T) and retract acceleration (R), mm/sec^2
M205 X8.00 Y8.00 Z0.40 E4.50 ; sets the jerk limits, mm/sec
M205 S0 T0 ; sets the minimum extruding and travel feed rate, mm/sec
M107
;TYPE:Custom
M862.3 P "MK3S" ; printer model check
M862.1 P0.4 ; nozzle diameter check
M115 U3.11.0 ; tell printer latest fw version
G90 ; use absolute coordinates
M83 ; extruder relative mode
M104 S215 ; set extruder temp
M140 S60 ; set bed temp
M190 S60 ; wait for bed temp
M109 S215 ; wait for extruder temp
G28 W ; home all without mesh bed level
G80 ; mesh bed leveling

G1 Z0.2 F720
G1 Y-3 F1000 ; go outside print area
G92 E0
G1 X60 E9 F1000 ; intro line
G1 X100 E12.5 F1000 ; intro line

G92 E0
M221 S95

; Don't change E values below. Excessive value can damage the printer.

M907 E538 ; set extruder motor current
G21 ; set units to millimeters
G90 ; use absolute coordinates
M83 ; use relative distances for extrusion
M900 K0.05 ; Filament gcode LA 1.5
M900 K30 ; Filament gcode LA 1.0
M107
;LAYER_CHANGE
;Z:0.2
;HEIGHT:0.2
;BEFORE_LAYER_CHANGE
G92 E0.0
;0.2


G1 E-.8 F2100
G1 Z.4 F720
;AFTER_LAYER_CHANGE
;0.2
G1 X125.497 Y95.597 F10800
G1 Z.2 F720
G1 E.8 F2100
M204 S800
;TYPE:Skirt/Brim
;WIDTH:0.42
G1 F1200
G1 X126.728 Y94.365 E.05462
G1 X131.36 Y92.05 E.16235
G1 X132.591 Y91.759 E.03968
G1 X140.802 Y91.759 E.25745
G1 X141.673 Y91.9 E.02766
G1 X148.62 Y94.216 E.2296
G1 X153.612 Y96.681 E.17456
G1 X154.328 Y97.197 E.02766
G1 X158.959 Y101.828 E.20536
G1 X159.766 Y103.776 E.06609
G1 X159.766 Y118.933 E.47527
G1 X158.959 Y120.881 E.06609
G1 X154.328 Y125.512 E.20536
G1 X153.612 Y126.028 E.02766
G1 X148.981 Y128.344 E.16235
G1 X147.749 Y128.635 E.03968
G1 X127.96 Y128.635 E.62048
G1 X126.543 Y128.242 E.04612
G1 X125.347 Y126.751 E.05991
G1 X123.032 Y119.804 E.2296
G1 X122.89 Y118.933 E.02766
G1 X122.89 Y101.46 E.54787
G1 X123.181 Y100.228 E.03968
G1 X125.47 Y95.651 E.16047
M204 S1000
G1 X125.807 Y95.819 F10800
M204 S800
G1 F1200
G1 X125.834 Y95.766 E.00188
G1 X126.897 Y94.703 E.04714
G1 X131.528 Y92.387 E.16235
G1 X132.591 Y92.136 E.03425
G1 X140.802 Y92.136 E.25745
G1 X141.554 Y92.258 E.02388
G1 X148.501 Y94.574 E.2296
G1 X153.443 Y97.018 E.17289
G1 X154.061 Y97.463 E.02388
G1 X158.693 Y102.095 E.20536
G1 X159.389 Y103.776 E.05704
G1 X159.389 Y118.933 E.47527
G1 X158.693 Y120.614 E.05704
G1 X154.061 Y125.246 E.20536
G1 X153.443 Y125.691 E.02388
G1 X148.812 Y128.006 E.16235
G1 X147.749 Y128.257 E.03425
G1 X127.96 Y128.257 E.62048
G1 X126.653 Y127.866 E.04278
G1 X125.705 Y126.632 E.04879
G1 X123.389 Y119.685 E.2296
G1 X123.267 Y118.933 E.02388
G1 X123.267 Y101.46 E.54787
G1 X123.518 Y100.397 E.03425
G1 X125.78 Y95.873 E.15859
M204 S1000
; printing object Final flower.stl id:0 copy 0
;WIPE_START
G1 F8640
G1 X125.834 Y95.766 E-.02771
G1 X126.897 Y94.703 E-.34714
G1 X128.389 Y93.957 E-.38515
;WIPE_END
G1 E-.04 F2100
G1 Z.6 F720
G1 X140.802 Y96.829 F10800
G1 Z.2 F720
M73 P1 R33
M73 Q1 S33
G1 E.8 F2100
M204 S800
;TYPE:Support material
G1 F1200
G1 X147.749 Y96.829 E.21781
G1 X147.749 Y99.144 E.0726
G1 X152.38 Y99.144 E.14521
G1 X152.38 Y101.46 E.0726
G1 X154.696 Y101.46 E.0726
G1 X154.696 Y103.776 E.0726
G1 X157.012 Y103.776 E.0726
G1 X157.012 Y118.933 E.47527
G1 X154.696 Y118.933 E.0726
G1 X154.696 Y121.249 E.0726
G1 X152.38 Y121.249 E.0726
G1 X152.38 Y123.565 E.0726
G1 X147.749 Y123.565 E.14521
G1 X147.749 Y125.88 E.0726
G1 X127.96 Y125.88 E.62048
G1 X127.96 Y118.933 E.21781
G1 X125.644 Y118.933 E.0726
G1 X125.644 Y101.46 E.54787
G1 X127.96 Y101.46 E.0726
G1 X127.96 Y96.829 E.14521
G1 X132.591 Y96.829 E.14521
G1 X132.591 Y94.513 E.0726
G1 X140.802 Y94.513 E.25745
M73 P1 R32
G1 X140.802 Y96.772 E.07083
M204 S1000
;WIPE_START
G1 F8640
G1 X140.802 Y94.513 E-.52162
G1 X139.77 Y94.513 E-.23838
;WIPE_END
G1 E-.04 F2100
G1 Z.6 F720
G1 X137.487 Y116.354 F10800
G1 Z.2 F720
G1 E.8 F2100
M204 S800
G1 F1200
G1 X145.169 Y116.354 E.24089
G1 X145.169 Y114.038 E.0726
G1 X147.485 Y114.038 E.0726
G1 X147.485 Y108.671 E.16828
G1 X145.169 Y108.671 E.0726
G1 X145.169 Y106.355 E.0726
G1 X137.487 Y106.355 E.24089
G1 X137.487 Y116.297 E.31172
M204 S1000
G1 X156.51 Y118.764 F10800
M204 S800
G1 F1200
G1 X156.51 Y104.115 E.4593
G1 X156.091 Y104.115 E.01314
G1 X156.091 Y118.594 E.45398
G1 X155.672 Y118.594 E.01314
G1 X155.672 Y104.115 E.45398
G1 X155.253 Y104.115 E.01314
G1 X155.253 Y118.594 E.45398
G1 X154.834 Y118.594 E.01314
G1 X154.834 Y104.115 E.45398
G1 X154.415 Y104.115 E.01314
G1 X154.415 Y118.594 E.45398
G1 X154.357 Y118.594 E.00184
G1 X154.357 Y120.91 E.0726
G1 X153.996 Y120.91 E.01129
G1 X153.996 Y101.799 E.59919
G1 X153.577 Y101.799 E.01314
G1 X153.577 Y120.91 E.59919
G1 X153.159 Y120.91 E.01314
G1 X153.159 Y101.799 E.59919
G1 X152.74 Y101.799 E.01314
G1 X152.74 Y120.91 E.59919
G1 X152.321 Y120.91 E.01314
G1 X152.321 Y101.799 E.59919
G1 X152.041 Y101.799 E.00876
G1 X152.041 Y99.484 E.0726
G1 X151.902 Y99.484 E.00437
G1 X151.902 Y123.225 E.7444
G1 X151.483 Y123.225 E.01314
M73 P2 R32
M73 Q2 S33
G1 X151.483 Y99.484 E.7444
G1 X151.064 Y99.484 E.01314
G1 X151.064 Y123.225 E.7444
G1 X150.645 Y123.225 E.01314
G1 X150.645 Y99.484 E.7444
G1 X150.226 Y99.484 E.01314
G1 X150.226 Y123.225 E.7444
G1 X149.807 Y123.225 E.01314
M73 Q2 S32
G1 X149.807 Y99.484 E.7444
G1 X149.388 Y99.484 E.01314
G1 X149.388 Y123.225 E.7444
G1 X148.969 Y123.225 E.01314
G1 X148.969 Y99.484 E.7444
G1 X148.55 Y99.484 E.01314
G1 X148.55 Y123.225 E.7444
G1 X148.131 Y123.225 E.01314
G1 X148.131 Y99.484 E.7444
G1 X147.712 Y99.484 E.01314
G1 X147.712 Y123.225 E.7444
G1 X147.41 Y123.225 E.00947
G1 X147.41 Y125.541 E.0726
G1 X147.293 Y125.541 E.00367
G1 X147.293 Y114.377 E.35002
G1 X146.874 Y114.377 E.01314
G1 X146.874 Y125.541 E.35002
G1 X146.455 Y125.541 E.01314
G1 X146.455 Y114.377 E.35002
G1 X146.036 Y114.377 E.01314
G1 X146.036 Y125.541 E.35002
G1 X145.617 Y125.541 E.01314
G1 X145.617 Y114.377 E.35002
G1 X145.509 Y114.377 E.00339
G1 X145.509 Y116.693 E.0726
G1 X145.198 Y116.693 E.00975
G1 X145.198 Y125.541 E.27742
G1 X144.779 Y125.541 E.01314
G1 X144.779 Y116.693 E.27742
G1 X144.36 Y116.693 E.01314
G1 X144.36 Y125.541 E.27742
G1 X143.941 Y125.541 E.01314
G1 X143.941 Y116.693 E.27742
G1 X143.522 Y116.693 E.01314
G1 X143.522 Y125.541 E.27742
G1 X143.103 Y125.541 E.01314
G1 X143.103 Y116.693 E.27742
G1 X142.684 Y116.693 E.01314
G1 X142.684 Y125.541 E.27742
G1 X142.265 Y125.541 E.01314
G1 X142.265 Y116.693 E.27742
G1 X141.846 Y116.693 E.01314
G1 X141.846 Y125.541 E.27742
G1 X141.427 Y125.541 E.01314
M73 P3 R32
M73 Q3 S32
G1 X141.427 Y116.693 E.27742
G1 X141.008 Y116.693 E.01314
G1 X141.008 Y125.541 E.27742
G1 X140.589 Y125.541 E.01314
G1 X140.589 Y116.693 E.27742
G1 X140.17 Y116.693 E.01314
G1 X140.17 Y125.541 E.27742
G1 X139.751 Y125.541 E.01314
G1 X139.751 Y116.693 E.27742
G1 X139.332 Y116.693 E.01314
G1 X139.332 Y125.541 E.27742
G1 X138.913 Y125.541 E.01314
G1 X138.913 Y116.693 E.27742
G1 X138.494 Y116.693 E.01314
G1 X138.494 Y125.541 E.27742
G1 X138.075 Y125.541 E.01314
G1 X138.075 Y116.693 E.27742
G1 X137.656 Y116.693 E.01314
G1 X137.656 Y125.541 E.27742
G1 X137.237 Y125.541 E.01314
G1 X137.237 Y94.852 E.96222
G1 X137.656 Y94.852 E.01314
G1 X137.656 Y106.016 E.35002
G1 X138.075 Y106.016 E.01314
G1 X138.075 Y94.852 E.35002
G1 X138.494 Y94.852 E.01314
G1 X138.494 Y106.016 E.35002
G1 X138.913 Y106.016 E.01314
G1 X138.913 Y94.852 E.35002
G1 X139.332 Y94.852 E.01314
G1 X139.332 Y106.016 E.35002
G1 X139.751 Y106.016 E.01314
G1 X139.751 Y94.852 E.35002
G1 X140.17 Y94.852 E.01314
G1 X140.17 Y106.016 E.35002
G1 X140.589 Y106.016 E.01314
G1 X140.589 Y97.168 E.27742
G1 X141.008 Y97.168 E.01314
G1 X141.008 Y106.016 E.27742
G1 X141.427 Y106.016 E.01314
G1 X141.427 Y97.168 E.27742
G1 X141.846 Y97.168 E.01314
G1 X141.846 Y106.016 E.27742
G1 X142.265 Y106.016 E.01314
G1 X142.265 Y97.168 E.27742
G1 X142.684 Y97.168 E.01314
G1 X142.684 Y106.016 E.27742
G1 X143.103 Y106.016 E.01314
G1 X143.103 Y97.168 E.27742
G1 X143.522 Y97.168 E.01314
G1 X143.522 Y106.016 E.27742
G1 X143.941 Y106.016 E.01314
G1 X143.941 Y97.168 E.27742
G1 X144.36 Y97.168 E.01314
G1 X144.36 Y106.016 E.27742
G1 X144.779 Y106.016 E.01314
G1 X144.779 Y97.168 E.27742
G1 X145.198 Y97.168 E.01314
G1 X145.198 Y106.016 E.27742
G1 X145.509 Y106.016 E.00975
G1 X145.509 Y108.332 E.0726
G1 X145.617 Y108.332 E.00339
G1 X145.617 Y97.168 E.35002
G1 X146.036 Y97.168 E.01314
G1 X146.036 Y108.332 E.35002
G1 X146.455 Y108.332 E.01314
G1 X146.455 Y97.168 E.35002
G1 X146.874 Y97.168 E.01314
G1 X146.874 Y108.332 E.35002
G1 X147.293 Y108.332 E.01314
G1 X147.293 Y96.998 E.35535
M204 S1000
;WIPE_START
G1 F8640
G1 X147.293 Y100.29 E-.76
;WIPE_END
G1 E-.04 F2100
G1 Z.6 F720
G1 X136.818 Y125.711 F10800
G1 Z.2 F720
M73 P4 R32
G1 E.8 F2100
M204 S800
G1 F1200
G1 X136.818 Y94.852 E.96754
G1 X136.399 Y94.852 E.01314
M73 Q4 S32
G1 X136.399 Y125.541 E.96222
G1 X135.98 Y125.541 E.01314
G1 X135.98 Y94.852 E.96222
G1 X135.561 Y94.852 E.01314
G1 X135.561 Y125.541 E.96222
G1 X135.142 Y125.541 E.01314
M73 P4 R31
G1 X135.142 Y94.852 E.96222
G1 X134.724 Y94.852 E.01314
G1 X134.724 Y125.541 E.96222
G1 X134.305 Y125.541 E.01314
G1 X134.305 Y94.852 E.96222
G1 X133.886 Y94.852 E.01314
G1 X133.886 Y125.541 E.96222
G1 X133.467 Y125.541 E.01314
G1 X133.467 Y94.852 E.96222
G1 X133.048 Y94.852 E.01314
G1 X133.048 Y125.541 E.96222
G1 X132.629 Y125.541 E.01314
G1 X132.629 Y97.168 E.88961
G1 X132.21 Y97.168 E.01314
G1 X132.21 Y125.541 E.88961
G1 X131.791 Y125.541 E.01314
G1 X131.791 Y97.168 E.88961
G1 X131.372 Y97.168 E.01314
M73 P5 R31
G1 X131.372 Y125.541 E.88961
G1 X130.953 Y125.541 E.01314
M73 Q5 S32
G1 X130.953 Y97.168 E.88961
G1 X130.534 Y97.168 E.01314
G1 X130.534 Y125.541 E.88961
G1 X130.115 Y125.541 E.01314
G1 X130.115 Y97.168 E.88961
G1 X129.696 Y97.168 E.01314
M73 Q5 S31
G1 X129.696 Y125.541 E.88961
G1 X129.277 Y125.541 E.01314
G1 X129.277 Y97.168 E.88961
G1 X128.858 Y97.168 E.01314
G1 X128.858 Y125.541 E.88961
G1 X128.439 Y125.541 E.01314
G1 X128.439 Y97.168 E.88961
G1 X128.299 Y97.168 E.00437
G1 X128.299 Y101.799 E.14521
G1 X128.02 Y101.799 E.00876
G1 X128.02 Y118.594 E.52659
G1 X127.601 Y118.594 E.01314
G1 X127.601 Y101.799 E.52659
G1 X127.182 Y101.799 E.01314
G1 X127.182 Y118.594 E.52659
G1 X126.763 Y118.594 E.01314
G1 X126.763 Y101.799 E.52659
G1 X126.344 Y101.799 E.01314
G1 X126.344 Y118.764 E.53191
M204 S1000
;WIPE_START
G1 F8640
G1 X126.344 Y115.472 E-.76
;WIPE_END
G1 E-.04 F2100
G1 Z.6 F720
G1 X137.95 Y115.986 F10800
G1 Z.2 F720
G1 E.8 F2100
M204 S800
;TYPE:Support material interface
;WIDTH:0.38
G1 F1200
G1 X137.855 Y115.986 E.00267
G1 X137.855 Y106.723 E.25961
G1 X138.108 Y106.723 E.0071
G1 X138.108 Y115.986 E.25961
G1 X138.623 Y115.986 E.01445
G1 X138.623 Y112.851 E.08786
G1 X138.822 Y113.156 E.0102
G1 X139.139 Y113.519 E.01352
G1 X139.139 Y115.986 E.06913
G1 X139.655 Y115.986 E.01445
G1 X139.655 Y113.951 E.05704
G1 X139.915 Y114.108 E.00853
G1 X140.17 Y114.225 E.00787
G1 X140.17 Y115.986 E.04935
G1 X140.686 Y115.986 E.01445
G1 X140.686 Y114.394 E.04463
G1 X140.99 Y114.449 E.00868
G1 X141.201 Y114.464 E.00593
G1 X141.201 Y115.986 E.04265
G1 X141.717 Y115.986 E.01445
G1 X141.717 Y114.455 E.04291
G1 X142.233 Y114.353 E.01473
G1 X142.233 Y115.986 E.04577
G1 X142.748 Y115.986 E.01445
G1 X142.748 Y114.157 E.05127
G1 X143.148 Y113.929 E.01289
G1 X143.264 Y113.84 E.0041
G1 X143.264 Y115.986 E.06013
G1 X143.78 Y115.986 E.01445
G1 X143.78 Y113.352 E.07382
G1 X144.047 Y112.978 E.0129
M204 S1000
;WIPE_START
G1 F8640
G1 X143.78 Y113.352 E-.10624
G1 X143.78 Y115.986 E-.60812
G1 X143.582 Y115.986 E-.04564
;WIPE_END
G1 E-.04 F2100
G1 Z.6 F720
G1 X144.969 Y109.039 F10800
G1 Z.2 F720
M73 P6 R31
G1 E.8 F2100
M204 S800
G1 F1200
G1 X145.326 Y109.039 E.01003
G1 X145.326 Y113.67 E.12981
G1 X145.842 Y113.67 E.01445
G1 X145.842 Y109.039 E.12981
G1 X146.358 Y109.039 E.01445
M73 Q6 S31
G1 X146.358 Y113.67 E.12981
G1 X146.873 Y113.67 E.01445
G1 X146.873 Y109.039 E.12981
G1 X147.117 Y109.039 E.00683
G1 X147.117 Y109.51 E.0132
M204 S1000
;WIPE_START
G1 F8640
G1 X147.117 Y109.039 E-.10875
G1 X146.873 Y109.039 E-.0563
G1 X146.873 Y111.615 E-.59494
;WIPE_END
G1 E-.04 F2100
G1 Z.6 F720
G1 X144.801 Y106.723 F10800
G1 Z.2 F720
G1 E.8 F2100
M204 S800
G1 F1200
G1 X144.801 Y115.986 E.25961
G1 X144.295 Y115.986 E.01419
G1 X144.295 Y112.487 E.09806
G1 X144.425 Y112.079 E.01202
G1 X144.491 Y111.707 E.01059
G1 X144.512 Y111.361 E.00972
G1 X144.491 Y110.983 E.01059
G1 X144.425 Y110.611 E.01059
G1 X144.295 Y110.203 E.01202
G1 X144.295 Y106.723 E.09752
G1 X143.78 Y106.723 E.01445
G1 X143.78 Y109.338 E.07328
G1 X143.47 Y109.013 E.01258
G1 X143.264 Y108.849 E.00737
G1 X143.264 Y106.723 E.05959
G1 X142.748 Y106.723 E.01445
G1 X142.748 Y108.533 E.05073
G1 X142.507 Y108.425 E.00741
G1 X142.233 Y108.337 E.00808
G1 X142.233 Y106.723 E.04523
G1 X141.717 Y106.723 E.01445
G1 X141.717 Y108.235 E.04237
G1 X141.328 Y108.212 E.01093
G1 X141.201 Y108.233 E.0036
G1 X141.201 Y106.723 E.04233
G1 X140.686 Y106.723 E.01445
G1 X140.686 Y108.291 E.04394
G1 X140.515 Y108.326 E.00487
G1 X140.17 Y108.443 E.01022
G1 X140.17 Y106.723 E.04821
G1 X139.655 Y106.723 E.01445
G1 X139.655 Y108.708 E.05563
G1 X139.428 Y108.866 E.00774
G1 X139.139 Y109.114 E.01068
G1 X139.139 Y106.723 E.06702
G1 X138.623 Y106.723 E.01445
G1 X138.623 Y109.781 E.08569
G1 X138.439 Y110.159 E.0118
G1 X138.36 Y110.399 E.00707
M204 S1000
M204 S800
G1 X138.287 Y110.663 E.00767
M204 S1000
;WIPE_START
G1 F8640
G1 X138.36 Y110.399 E-.06317
;WIPE_END
G1 E-.73683 F2100
G1 Z.6 F720
G1 X141.6 Y108.597 F10800
G1 Z.2 F720
G1 E.8 F2100
M204 S800
;TYPE:Support material
;WIDTH:0.42
G1 F1200
G1 X142.048 Y108.665 E.01421
G1 X142.358 Y108.762 E.01017
G1 X142.662 Y108.898 E.01045
G1 X142.955 Y109.075 E.01074
G1 X143.217 Y109.281 E.01045
G1 X143.453 Y109.517 E.01045
G1 X143.653 Y109.773 E.01017
G1 X143.826 Y110.058 E.01045
G1 X143.967 Y110.37 E.01074
G1 X144.065 Y110.689 E.01045
G1 X144.125 Y111.017 E.01045
G1 X144.144 Y111.34 E.01017
G1 X144.125 Y111.673 E.01045
G1 X144.065 Y112.001 E.01045
G1 X143.966 Y112.32 E.01046
G1 X143.826 Y112.632 E.01074
G1 X143.653 Y112.917 E.01045
G1 X143.453 Y113.173 E.01017
G1 X143.211 Y113.415 E.01074
G1 X142.955 Y113.615 E.01017
G1 X142.67 Y113.788 E.01045
G1 X142.358 Y113.928 E.01074
G1 X142.039 Y114.027 E.01045
G1 X141.711 Y114.087 E.01045
G1 X141.379 Y114.106 E.01045
G1 X141.055 Y114.087 E.01017
G1 X140.727 Y114.027 E.01045
G1 X140.408 Y113.928 E.01046
G1 X140.096 Y113.788 E.01074
G1 X139.818 Y113.62 E.01017
G1 X139.555 Y113.415 E.01045
G1 X139.24 Y113.093 E.01414
G1 X138.915 Y112.622 E.01792
G1 X138.756 Y112.274 E.01202
G1 X138.622 Y111.771 E.01631
G1 X138.585 Y111.409 E.01141
G1 X138.596 Y111.041 E.01154
G1 X138.659 Y110.674 E.01168
G1 X138.776 Y110.309 E.01204
G1 X138.942 Y109.964 E.01199
G1 X139.196 Y109.594 E.01408
G1 X139.466 Y109.308 E.01233
G1 X139.772 Y109.065 E.01225
G1 X140.103 Y108.872 E.01201
G1 X140.435 Y108.736 E.01126
G1 X140.623 Y108.678 E.00616
G1 X140.991 Y108.609 E.01175
G1 X141.367 Y108.582 E.01181
G1 X141.544 Y108.593 E.00555
M204 S1000
G1 X141.194 Y109.899 F10800
M204 S800
G1 F1200
G1 X141.54 Y110.183 E.01404
G1 X141.694 Y110.37 E.00758
G1 X141.812 Y110.59 E.00784
G1 X141.884 Y110.829 E.00783
G1 X141.908 Y111.07 E.00761
G1 X141.884 Y111.313 E.00763
G1 X141.812 Y111.552 E.00783
G1 X141.693 Y111.771 E.00783
G1 X141.539 Y111.959 E.00762
G1 X141.351 Y112.113 E.00762
G1 X141.131 Y112.231 E.00783
G1 X140.892 Y112.302 E.00784
G1 X140.214 Y112.368 E.02133
G1 X140.121 Y113.298 E.02932
G1 X140.858 Y113.523 E.02417
G1 X141.345 Y113.568 E.01532
G1 X141.506 Y113.56 E.00505
